assets/BlockAndBleed-open-open.svg

<?xml version="1.0" encoding="UTF-8" standalone="no"?>
<!-- Generated by Microsoft Visio, SVG Export BlockAndBleed-open-open.svg Page-1 -->

<svg
   width="10.520818in"
   height="6.6153374in"
   viewBox="0 0 757.50004 476.30433"
   xml:space="preserve"
   color-interpolation-filters="sRGB"
   class="st6"
   version="1.1"
   id="svg20"
   sodipodi:docname="BlockAndBleed-open-open.svg"
   inkscape:version="1.4.3 (0d15f75, 2025-12-25)"
   xmlns:inkscape="http://www.inkscape.org/namespaces/inkscape"
   xmlns:sodipodi="http://sodipodi.sourceforge.net/DTD/sodipodi-0.dtd"
   xmlns="http://www.w3.org/2000/svg"
   xmlns:svg="http://www.w3.org/2000/svg"
   xmlns:v="http://schemas.microsoft.com/visio/2003/SVGExtensions/"><defs
   id="defs20" /><sodipodi:namedview
   id="namedview20"
   pagecolor="#505050"
   bordercolor="#eeeeee"
   borderopacity="1"
   inkscape:showpageshadow="0"
   inkscape:pageopacity="0"
   inkscape:pagecheckerboard="0"
   inkscape:deskcolor="#505050"
   inkscape:document-units="in"
   showborder="false"
   inkscape:zoom="0.41105238"
   inkscape:cx="288.28443"
   inkscape:cy="330.85808"
   inkscape:window-width="1898"
   inkscape:window-height="986"
   inkscape:window-x="3"
   inkscape:window-y="52"
   inkscape:window-maximized="0"
   inkscape:current-layer="g20" />
	<v:documentProperties
   v:langID="1033"
   v:viewMarkup="false">
		<v:userDefs>
			<v:ud
   v:nameU="msvNoAutoConnect"
   v:val="VT0(1):26" />
		</v:userDefs>
	</v:documentProperties>

	<style
   type="text/css"
   id="style1">
	<![CDATA[
		.st1 {stroke:#000000;stroke-linecap:round;stroke-linejoin:round;stroke-width:1}
		.st2 {fill:#ffffff;stroke:#000000;stroke-linecap:round;stroke-linejoin:round;stroke-width:1}
		.st3 {fill:#000000}
		.st4 {stroke:#000000;stroke-linecap:butt;stroke-width:1}
		.st5 {fill:none;stroke:#000000;stroke-linecap:round;stroke-linejoin:round;stroke-width:1}
		.st6 {fill:none;fill-rule:evenodd;font-size:12px;overflow:visible;stroke-linecap:square;stroke-miterlimit:3}
	]]>
	</style>

	<g
   v:mID="0"
   v:index="1"
   v:groupContext="foregroundPage"
   id="g20"
   transform="translate(-17.625,-17.625323)">
		<title
   id="title1">Page-1</title>
		<v:pageProperties
   v:drawingScale="1"
   v:pageScale="1"
   v:drawingUnits="19"
   v:shadowOffsetX="9"
   v:shadowOffsetY="-9" />
		<v:layer
   v:name="Connector"
   v:index="0" />
		
		
		<g
   id="shape16-21"
   v:mID="16"
   v:groupContext="shape"
   transform="translate(18.375,-18.375)"
   style="fill:#ffffff;stroke:#000000;stroke-width:1.5;stroke-opacity:1">
			<title
   id="title12">Sheet.16</title>
			<rect
   x="0"
   y="36.75"
   width="756"
   height="474.80499"
   class="st5"
   id="rect12"
   style="fill:#ffffff;stroke:#000000;stroke-width:1.5;stroke-opacity:1" />
		</g>
		<g
   id="group17-23"
   transform="translate(137.537,-92.1311)"
   v:mID="17"
   v:groupContext="group"
   style="stroke:#000000;stroke-width:1.5;stroke-opacity:1">
			<title
   id="title13">Sheet.17</title>
			<g
   id="shape18-24"
   v:mID="18"
   v:groupContext="shape"
   transform="rotate(90,28.0795,502.7565)"
   style="stroke:#000000;stroke-width:1.5;stroke-opacity:1">
				<title
   id="title14">Sheet.18</title>
				<path
   d="M 0,511.55 H 29.37"
   class="st1"
   id="path14"
   style="stroke:#000000;stroke-width:1.5;stroke-opacity:1" />
			</g>
			<g
   id="shape19-27"
   v:mID="19"
   v:groupContext="shape"
   style="stroke:#000000;stroke-width:1.5;stroke-opacity:1">
				<title
   id="title15">Sheet.19</title>
				<path
   d="m 0,494.65 v 16.9 h 37.57 v -15.96"
   class="st1"
   id="path15"
   style="stroke:#000000;stroke-width:1.5;stroke-opacity:1" />
			</g>
		</g>
		<g
   id="shape22-30"
   v:mID="22"
   v:groupContext="shape"
   v:layerMember="0"
   transform="translate(498.009,-374.479)"
   style="stroke:#000000;stroke-width:1.5;stroke-opacity:1;paint-order:markers fill stroke">
			<title
   id="title16">Dynamic connector</title>
			<path
   d="M 9,511.55 H 138.07 V 748.96 H 9"
   class="st1"
   id="path16"
   style="stroke:#000000;stroke-width:1.5;stroke-opacity:1;paint-order:markers fill stroke" />
		</g>
		<g
   id="shape24-33"
   v:mID="24"
   v:groupContext="shape"
   transform="rotate(-0.0346687,-426069.91,-1050850.1)"
   style="stroke:#000000;stroke-width:1.5;stroke-opacity:1">
			<title
   id="title17">Sheet.24</title>
			<path
   d="M 0,511.55 H 136.04"
   class="st1"
   id="path17"
   style="stroke:#000000;stroke-width:1.5;stroke-opacity:1" />
		</g>
		<g
   id="shape25-36"
   v:mID="25"
   v:groupContext="shape"
   transform="translate(18.375,-258.082)"
   style="stroke:#000000;stroke-width:1.5;stroke-opacity:1">
			<title
   id="title18">Sheet.25</title>
			<path
   d="M 138.29,396.31 V 511.55 H 0"
   class="st1"
   id="path18"
   style="stroke:#000000;stroke-width:1.5;stroke-opacity:1" />
		</g>
		<g
   id="shape26-39"
   v:mID="26"
   v:groupContext="shape"
   transform="rotate(180,142.8705,324.3155)"
   style="stroke:#000000;stroke-width:1.5;stroke-opacity:1">
			<title
   id="title19">Sheet.26</title>
			<path
   d="M 0,511.55 H 129.07"
   class="st1"
   id="path19"
   style="stroke:#000000;stroke-width:1.5;stroke-opacity:1" />
		</g>
		<g
   id="shape27-42"
   v:mID="27"
   v:groupContext="shape"
   transform="translate(156.668,-129.009)"
   style="stroke:#000000;stroke-width:1.5;stroke-opacity:1">
			<title
   id="title20">Sheet.27</title>
			<path
   d="M 129.07,503.49 H 0 l 0.15,8.06"
   class="st1"
   id="path20"
   style="stroke:#000000;stroke-width:1.5;stroke-opacity:1" />
		</g>
	<g
   id="group2-1"
   transform="translate(285.741,-337.601)"
   v:mID="2"
   v:groupContext="group"
   style="stroke:#000000;stroke-width:1.5;stroke-opacity:1;paint-order:markers fill stroke">
			<v:userDefs>
				<v:ud
   v:nameU="H"
   v:prompt=""
   v:val="VT0(0.25):0" />
				<v:ud
   v:nameU="CHLimit"
   v:prompt=""
   v:val="VT0(0):26" />
				<v:ud
   v:nameU="OC"
   v:val="VT0(0):26" />
				<v:ud
   v:nameU="Adjust"
   v:val="VT0(0):26" />
				<v:ud
   v:nameU="Min"
   v:val="VT0(0):5" />
				<v:ud
   v:nameU="visVersion"
   v:val="VT0(15):26" />
				<v:ud
   v:nameU="H"
   v:prompt=""
   v:val="VT0(1.0243902439024):1" />
			</v:userDefs>
			<title
   id="title2">Gate-valve</title>
			<g
   id="shape3-2"
   v:mID="3"
   v:groupContext="shape"
   transform="translate(0,-36.878)"
   style="stroke:#000000;stroke-width:1.5;stroke-opacity:1;paint-order:markers fill stroke">
				<title
   id="title3">Sheet.3</title>
				<path
   d="M 0,511.55 H 221.27"
   class="st1"
   id="path3"
   style="stroke:#000000;stroke-width:1.5;stroke-opacity:1;paint-order:markers fill stroke" />
			</g>
			<g
   id="shape4-5"
   v:mID="4"
   v:groupContext="shape"
   style="stroke:#000000;stroke-width:1.5;stroke-opacity:1;paint-order:markers fill stroke">
				<title
   id="title4">Sheet.4</title>
				<v:userDefs>
					<v:ud
   v:nameU="CX1"
   v:val="VT0(0.375):1" />
					<v:ud
   v:nameU="Adjust"
   v:val="VT0(0):26" />
					<v:ud
   v:nameU="OC"
   v:val="VT0(1):5" />
					<v:ud
   v:nameU="CX1"
   v:prompt=""
   v:val="VT0(1.5365850086619):1" />
				</v:userDefs>
				<path
   d="M 36.88,511.55 184.39,437.8 v 73.75 L 36.88,437.8 Z"
   class="st2"
   id="path4"
   style="stroke:#000000;stroke-width:1.5;stroke-opacity:1;paint-order:markers fill stroke" />
			</g>
			<g
   id="shape5-7"
   v:mID="5"
   v:groupContext="shape"
   transform="rotate(-45,73.274487,490.15171)"
   style="stroke:#000000;stroke-width:1.5;stroke-opacity:1;paint-order:markers fill stroke">
				<title
   id="title5">Sheet.5</title>
				<desc
   id="desc5">45</desc>
				<v:userDefs>
					<v:ud
   v:nameU="Hght"
   v:val="VT0(0.040192378864668):0" />
					<v:ud
   v:nameU="Factor"
   v:val="VT0(0.2):26" />
					<v:ud
   v:nameU="Adjust"
   v:val="VT0(0):26" />
					<v:ud
   v:nameU="CX1"
   v:val="VT0(0.375):1" />
					<v:ud
   v:nameU="Angle"
   v:val="VT0(0.78539816339745):37" />
					<v:ud
   v:nameU="Hght"
   v:prompt=""
   v:val="VT0(0.16469072315279):1" />
					<v:ud
   v:nameU="CX1"
   v:prompt=""
   v:val="VT0(1.5365850086619):1" />
				</v:userDefs>
				<v:textBlock
   v:margins="rect(4,0,4,0)" />
				<v:textRect
   cx="110.634"
   cy="505.626"
   width="221.27"
   height="11.8577" />
				<path
   d="m 221.27,505.63 -44.26,-5.93 v 11.85 z"
   class="st3"
   id="path5"
   style="stroke:#000000;stroke-width:1.5;stroke-opacity:1;paint-order:markers fill stroke" />
				<path
   d="m 221.27,505.63 -44.26,-5.93 v 11.85 l 44.26,-5.92"
   class="st4"
   id="path6"
   style="stroke:#000000;stroke-width:1.5;stroke-opacity:1;paint-order:markers fill stroke" />
				<path
   d="M 0,505.63 H 221.27"
   class="st4"
   id="path7"
   style="stroke:#000000;stroke-width:1.5;stroke-opacity:1;paint-order:markers fill stroke" />
			</g>
		</g><g
   id="group6-11"
   transform="translate(285.741,-100.198)"
   v:mID="6"
   v:groupContext="group"
   style="stroke:#000000;stroke-width:1.5;stroke-opacity:1;paint-order:markers fill stroke">
			<v:userDefs>
				<v:ud
   v:nameU="H"
   v:prompt=""
   v:val="VT0(0.25):0" />
				<v:ud
   v:nameU="CHLimit"
   v:prompt=""
   v:val="VT0(0):26" />
				<v:ud
   v:nameU="OC"
   v:val="VT0(0):26" />
				<v:ud
   v:nameU="Adjust"
   v:val="VT0(0):26" />
				<v:ud
   v:nameU="Min"
   v:val="VT0(0):5" />
				<v:ud
   v:nameU="visVersion"
   v:val="VT0(15):26" />
				<v:ud
   v:nameU="H"
   v:prompt=""
   v:val="VT0(1.0243902439024):1" />
				<v:ud
   v:nameU="OC"
   v:prompt=""
   v:val="VT0(1):5" />
			</v:userDefs>
			<title
   id="title7">Gate-valve.50</title>
			<g
   id="shape7-12"
   v:mID="7"
   v:groupContext="shape"
   transform="translate(0,-36.878)"
   style="stroke:#000000;stroke-width:1.5;stroke-opacity:1;paint-order:markers fill stroke">
				<title
   id="title8">Sheet.7</title>
				<path
   d="M 0,511.55 H 221.27"
   class="st1"
   id="path8"
   style="stroke:#000000;stroke-width:1.5;stroke-opacity:1;paint-order:markers fill stroke" />
			</g>
			<g
   id="shape8-15"
   v:mID="8"
   v:groupContext="shape"
   style="stroke:#000000;stroke-width:1.5;stroke-opacity:1;paint-order:markers fill stroke">
				<title
   id="title9">Sheet.8</title>
				<v:userDefs>
					<v:ud
   v:nameU="CX1"
   v:val="VT0(0.375):1" />
					<v:ud
   v:nameU="Adjust"
   v:val="VT0(0):26" />
					<v:ud
   v:nameU="OC"
   v:val="VT0(1):5" />
					<v:ud
   v:nameU="CX1"
   v:prompt=""
   v:val="VT0(1.5365853658537):1" />
					<v:ud
   v:nameU="OC"
   v:prompt=""
   v:val="VT0(0):5" />
				</v:userDefs>
				<path
   d="M 36.88,511.55 184.39,437.8 v 73.75 L 36.88,437.8 Z"
   class="st2"
   id="path9"
   style="stroke:#000000;stroke-width:1.5;stroke-opacity:1;paint-order:markers fill stroke" />
			</g>
			<g
   id="shape9-17"
   v:mID="9"
   v:groupContext="shape"
   transform="rotate(-45,73.274487,490.15171)"
   style="stroke:#000000;stroke-width:1.5;stroke-opacity:1;paint-order:markers fill stroke">
				<title
   id="title10">Sheet.9</title>
				<desc
   id="desc10">45</desc>
				<v:userDefs>
					<v:ud
   v:nameU="Hght"
   v:val="VT0(0.040192378864668):0" />
					<v:ud
   v:nameU="Factor"
   v:val="VT0(0.2):26" />
					<v:ud
   v:nameU="Adjust"
   v:val="VT0(0):26" />
					<v:ud
   v:nameU="CX1"
   v:val="VT0(0.375):1" />
					<v:ud
   v:nameU="Angle"
   v:val="VT0(0.78539816339745):37" />
					<v:ud
   v:nameU="Hght"
   v:prompt=""
   v:val="VT0(0.16469072315279):1" />
					<v:ud
   v:nameU="CX1"
   v:prompt=""
   v:val="VT0(1.5365853658537):1" />
				</v:userDefs>
				<v:textBlock
   v:margins="rect(4,0,4,0)" />
				<v:textRect
   cx="110.634"
   cy="505.626"
   width="221.27"
   height="11.8577" />
				<path
   d="m 221.27,505.63 -44.26,-5.93 v 11.85 z"
   class="st3"
   id="path10"
   style="stroke:#000000;stroke-width:1.5;stroke-opacity:1;paint-order:markers fill stroke" />
				<path
   d="m 221.27,505.63 -44.26,-5.93 v 11.85 l 44.26,-5.92"
   class="st4"
   id="path11"
   style="stroke:#000000;stroke-width:1.5;stroke-opacity:1;paint-order:markers fill stroke" />
				<path
   d="M 0,505.63 H 221.27"
   class="st4"
   id="path12"
   style="stroke:#000000;stroke-width:1.5;stroke-opacity:1;paint-order:markers fill stroke" />
			</g>
		</g></g>
</svg>

<?xml version="1.0" encoding="UTF-8" standalone="no"?>
<!DOCTYPE svg PUBLIC "-//W3C//DTD SVG 1.1//EN" "http://www.w3.org/Graphics/SVG/1.1/DTD/svg11.dtd">
<!-- Generated by Microsoft Visio, SVG Export BlockAndBleed-open-open.svg Page-1 -->
<svg xmlns="http://www.w3.org/2000/svg" xmlns:xlink="http://www.w3.org/1999/xlink" xmlns:ev="http://www.w3.org/2001/xml-events"
		xmlns:v="http://schemas.microsoft.com/visio/2003/SVGExtensions/" width="11.0104in" height="7.10493in"
		viewBox="0 0 792.75 511.555" xml:space="preserve" color-interpolation-filters="sRGB" class="st6">
	<v:documentProperties v:langID="1033" v:viewMarkup="false">
		<v:userDefs>
			<v:ud v:nameU="msvNoAutoConnect" v:val="VT0(1):26"/>
		</v:userDefs>
	</v:documentProperties>

	<style type="text/css">
	<![CDATA[
		.st1 {stroke:#000000;stroke-linecap:round;stroke-linejoin:round;stroke-width:1}
		.st2 {fill:#ffffff;stroke:#000000;stroke-linecap:round;stroke-linejoin:round;stroke-width:1}
		.st3 {fill:#000000}
		.st4 {stroke:#000000;stroke-linecap:butt;stroke-width:1}
		.st5 {fill:none;stroke:#000000;stroke-linecap:round;stroke-linejoin:round;stroke-width:1}
		.st6 {fill:none;fill-rule:evenodd;font-size:12px;overflow:visible;stroke-linecap:square;stroke-miterlimit:3}
	]]>
	</style>

	<g v:mID="0" v:index="1" v:groupContext="foregroundPage">
		<title>Page-1</title>
		<v:pageProperties v:drawingScale="1" v:pageScale="1" v:drawingUnits="19" v:shadowOffsetX="9" v:shadowOffsetY="-9"/>
		<v:layer v:name="Connector" v:index="0"/>
		<g id="group2-1" transform="translate(285.741,-337.601)" v:mID="2" v:groupContext="group">
			<v:userDefs>
				<v:ud v:nameU="H" v:prompt="" v:val="VT0(0.25):0"/>
				<v:ud v:nameU="CHLimit" v:prompt="" v:val="VT0(0):26"/>
				<v:ud v:nameU="OC" v:val="VT0(0):26"/>
				<v:ud v:nameU="Adjust" v:val="VT0(0):26"/>
				<v:ud v:nameU="Min" v:val="VT0(0):5"/>
				<v:ud v:nameU="visVersion" v:val="VT0(15):26"/>
				<v:ud v:nameU="H" v:prompt="" v:val="VT0(1.0243902439024):1"/>
			</v:userDefs>
			<title>Gate-valve</title>
			<g id="shape3-2" v:mID="3" v:groupContext="shape" transform="translate(0,-36.878)">
				<title>Sheet.3</title>
				<path d="M0 511.55 L221.27 511.55" class="st1"/>
			</g>
			<g id="shape4-5" v:mID="4" v:groupContext="shape">
				<title>Sheet.4</title>
				<v:userDefs>
					<v:ud v:nameU="CX1" v:val="VT0(0.375):1"/>
					<v:ud v:nameU="Adjust" v:val="VT0(0):26"/>
					<v:ud v:nameU="OC" v:val="VT0(1):5"/>
					<v:ud v:nameU="CX1" v:prompt="" v:val="VT0(1.5365850086619):1"/>
				</v:userDefs>
				<path d="M36.88 511.55 L184.39 437.8 L184.39 511.55 L36.88 437.8 L36.88 511.55 Z" class="st2"/>
			</g>
			<g id="shape5-7" v:mID="5" v:groupContext="shape" transform="translate(-325.128,195.375) rotate(-45)">
				<title>Sheet.5</title>
				<desc>45</desc>
				<v:userDefs>
					<v:ud v:nameU="Hght" v:val="VT0(0.040192378864668):0"/>
					<v:ud v:nameU="Factor" v:val="VT0(0.2):26"/>
					<v:ud v:nameU="Adjust" v:val="VT0(0):26"/>
					<v:ud v:nameU="CX1" v:val="VT0(0.375):1"/>
					<v:ud v:nameU="Angle" v:val="VT0(0.78539816339745):37"/>
					<v:ud v:nameU="Hght" v:prompt="" v:val="VT0(0.16469072315279):1"/>
					<v:ud v:nameU="CX1" v:prompt="" v:val="VT0(1.5365850086619):1"/>
				</v:userDefs>
				<v:textBlock v:margins="rect(4,0,4,0)"/>
				<v:textRect cx="110.634" cy="505.626" width="221.27" height="11.8577"/>
				<path d="M221.27 505.63 L177.01 499.7 L177.01 511.55 L221.27 505.63 Z" class="st3"/>
				<path d="M221.27 505.63 L177.01 499.7 L177.01 511.55 L221.27 505.63" class="st4"/>
				<path d="M0 505.63 L221.27 505.63" class="st4"/>
			</g>
		</g>
		<g id="group6-11" transform="translate(285.741,-100.198)" v:mID="6" v:groupContext="group">
			<v:userDefs>
				<v:ud v:nameU="H" v:prompt="" v:val="VT0(0.25):0"/>
				<v:ud v:nameU="CHLimit" v:prompt="" v:val="VT0(0):26"/>
				<v:ud v:nameU="OC" v:val="VT0(0):26"/>
				<v:ud v:nameU="Adjust" v:val="VT0(0):26"/>
				<v:ud v:nameU="Min" v:val="VT0(0):5"/>
				<v:ud v:nameU="visVersion" v:val="VT0(15):26"/>
				<v:ud v:nameU="H" v:prompt="" v:val="VT0(1.0243902439024):1"/>
				<v:ud v:nameU="OC" v:prompt="" v:val="VT0(1):5"/>
			</v:userDefs>
			<title>Gate-valve.50</title>
			<g id="shape7-12" v:mID="7" v:groupContext="shape" transform="translate(0,-36.878)">
				<title>Sheet.7</title>
				<path d="M0 511.55 L221.27 511.55" class="st1"/>
			</g>
			<g id="shape8-15" v:mID="8" v:groupContext="shape">
				<title>Sheet.8</title>
				<v:userDefs>
					<v:ud v:nameU="CX1" v:val="VT0(0.375):1"/>
					<v:ud v:nameU="Adjust" v:val="VT0(0):26"/>
					<v:ud v:nameU="OC" v:val="VT0(1):5"/>
					<v:ud v:nameU="CX1" v:prompt="" v:val="VT0(1.5365853658537):1"/>
					<v:ud v:nameU="OC" v:prompt="" v:val="VT0(0):5"/>
				</v:userDefs>
				<path d="M36.88 511.55 L184.39 437.8 L184.39 511.55 L36.88 437.8 L36.88 511.55 Z" class="st2"/>
			</g>
			<g id="shape9-17" v:mID="9" v:groupContext="shape" transform="translate(-325.128,195.375) rotate(-45)">
				<title>Sheet.9</title>
				<desc>45</desc>
				<v:userDefs>
					<v:ud v:nameU="Hght" v:val="VT0(0.040192378864668):0"/>
					<v:ud v:nameU="Factor" v:val="VT0(0.2):26"/>
					<v:ud v:nameU="Adjust" v:val="VT0(0):26"/>
					<v:ud v:nameU="CX1" v:val="VT0(0.375):1"/>
					<v:ud v:nameU="Angle" v:val="VT0(0.78539816339745):37"/>
					<v:ud v:nameU="Hght" v:prompt="" v:val="VT0(0.16469072315279):1"/>
					<v:ud v:nameU="CX1" v:prompt="" v:val="VT0(1.5365853658537):1"/>
				</v:userDefs>
				<v:textBlock v:margins="rect(4,0,4,0)"/>
				<v:textRect cx="110.634" cy="505.626" width="221.27" height="11.8577"/>
				<path d="M221.27 505.63 L177.01 499.7 L177.01 511.55 L221.27 505.63 Z" class="st3"/>
				<path d="M221.27 505.63 L177.01 499.7 L177.01 511.55 L221.27 505.63" class="st4"/>
				<path d="M0 505.63 L221.27 505.63" class="st4"/>
			</g>
		</g>
		<g id="shape16-21" v:mID="16" v:groupContext="shape" transform="translate(18.375,-18.375)">
			<title>Sheet.16</title>
			<rect x="0" y="36.75" width="756" height="474.805" class="st5"/>
		</g>
		<g id="group17-23" transform="translate(137.537,-92.1311)" v:mID="17" v:groupContext="group">
			<title>Sheet.17</title>
			<g id="shape18-24" v:mID="18" v:groupContext="shape" transform="translate(530.836,474.677) rotate(90)">
				<title>Sheet.18</title>
				<path d="M0 511.55 L29.37 511.55" class="st1"/>
			</g>
			<g id="shape19-27" v:mID="19" v:groupContext="shape">
				<title>Sheet.19</title>
				<path d="M0 494.65 L0 511.55 L37.57 511.55 L37.57 495.59" class="st1"/>
			</g>
		</g>
		<g id="shape22-30" v:mID="22" v:groupContext="shape" v:layerMember="0" transform="translate(498.009,-374.479)">
			<title>Dynamic connector</title>
			<path d="M9 511.55 L138.07 511.55 L138.07 748.96 L9 748.96" class="st1"/>
		</g>
		<g id="shape24-33" v:mID="24" v:groupContext="shape" transform="translate(635.773,-258) rotate(-0.0346687)">
			<title>Sheet.24</title>
			<path d="M0 511.55 L136.04 511.55" class="st1"/>
		</g>
		<g id="shape25-36" v:mID="25" v:groupContext="shape" transform="translate(18.375,-258.082)">
			<title>Sheet.25</title>
			<path d="M138.29 396.31 L138.29 511.55 L0 511.55" class="st1"/>
		</g>
		<g id="shape26-39" v:mID="26" v:groupContext="shape" transform="translate(285.741,648.631) rotate(180)">
			<title>Sheet.26</title>
			<path d="M0 511.55 L129.07 511.55" class="st1"/>
		</g>
		<g id="shape27-42" v:mID="27" v:groupContext="shape" transform="translate(156.668,-129.009)">
			<title>Sheet.27</title>
			<path d="M129.07 503.49 L0 503.49 L0.15 511.55" class="st1"/>
		</g>
	</g>
</svg>
